images/facebook.svg

<svg width="12" height="22" viewBox="0 0 12 22" fill="none" xmlns="http://www.w3.org/2000/svg">
<path d="M11.499 0.00457742L8.64616 0C5.44105 0 3.36976 2.12507 3.36976 5.41417V7.91047H0.501322C0.253455 7.91047 0.0527344 8.11142 0.0527344 8.35929V11.9761C0.0527344 12.224 0.253683 12.4247 0.501322 12.4247H3.36976V21.5512C3.36976 21.7991 3.57048 21.9998 3.81835 21.9998H7.56085C7.80872 21.9998 8.00944 21.7988 8.00944 21.5512V12.4247H11.3633C11.6112 12.4247 11.8119 12.224 11.8119 11.9761L11.8133 8.35929C11.8133 8.24027 11.7659 8.1263 11.6819 8.04207C11.5979 7.95785 11.4835 7.91047 11.3645 7.91047H8.00944V5.79433C8.00944 4.77723 8.25181 4.26089 9.57675 4.26089L11.4986 4.26021C11.7462 4.26021 11.9469 4.05926 11.9469 3.81162V0.453165C11.9469 0.205755 11.7464 0.00503516 11.499 0.00457742Z" fill="#0A033C"/>
</svg>

<svg xmlns="http://www.w3.org/2000/svg" width="12" height="22" fill="none"><path fill="#0A033C" d="M11.499.005 8.646 0C5.441 0 3.37 2.125 3.37 5.414V7.91H.5a.449.449 0 0 0-.448.45v3.616c0 .248.2.449.448.449H3.37v9.126c0 .248.2.449.448.449h3.743a.449.449 0 0 0 .448-.449v-9.126h3.354c.248 0 .449-.201.449-.449l.001-3.617a.45.45 0 0 0-.449-.449H8.01V5.794c0-1.017.243-1.533 1.568-1.533h1.922c.247 0 .448-.202.448-.45V.454c0-.247-.2-.448-.448-.448Z"/></svg>
